X: 1
T: Split Rock
C: Kevin Burke
R: jig
S: Fiddle Hell Online 2021-05-31 workshop handout
Z: 2021 John Chambers <jc:trillian.mit.edu>
M: 6/8
L: 1/8
K: Bm
|:\
"Bm"ABc BAF | vJc3 BAF | "A"E2(B {c}B)AF | ABG AFE ||\
"Bm"F2(B {c}B)AF | (ABc) BAF | "A"~vc3 BAE | "F#m"(F2B) "Bm"B3 :|
|:\
"A"cBc e2f- | {g}fec e(vcA | "Bm"B)cB (uB2A) | BcB (~uB2A) ||\
"A"cBc e2f- | {g}fec ecA | "F#m"(Jc3 B)AE | (F2B) "Bm"B3 :|
